X:15239
T:Sen sa Cheo
R:Reel
S:
H:
N:
D:Paddy Carty & Conor Tully(Session Tape) 
Z:Adrian Scahill
M:4/4
L:1/8
K:F
d2cf dGAc|dcdf c2AG|Addc defc|Acfd cFAc|\
d2cf dGAc|d3f c2AG|Addc defc|Acfd cBAc||\
BGG2 BGAc|BGG2 cFAc|BGG2 DGBG|Acfd cBA2|\
BGG2 BGAc|BGG2 cFAc|BGG2 DGBG|Acfd cdef||\
K:C\
g2bg agbg|g2bg d^cde|f2af gfaf|f2af defd|\
g2bg agbg|g2bg d^cde|f3a gzde|f2(3def cFAc||
